svg/fluentui-system-icons/ic_fluent_arrow_forward_down_person_20_filled.svg

<svg width="20" height="20" viewBox="0 0 20 20" fill="none" xmlns="http://www.w3.org/2000/svg">
<path d="M13.4341 4.7448L15.69 7.00053L12 7L11.7424 6.99598C8.94201 6.90788 7.25 5.37886 7.25 3.25C7.25 2.83579 6.91421 2.5 6.5 2.5C6.08579 2.5 5.75 2.83579 5.75 3.25L5.75406 3.46294C5.86748 6.42336 8.34852 8.5 12 8.5L15.69 8.50053L13.4341 10.7552L13.3615 10.8393C13.1437 11.1329 13.1679 11.5496 13.4341 11.8159C13.727 12.1088 14.2019 12.1088 14.4948 11.8159L18.0303 8.28033C18.0637 8.24697 18.0932 8.21126 18.1188 8.17387L18.1536 8.11817L18.2001 8.01963L18.2305 7.92035L18.2461 7.8264L18.2498 7.76721L18.2461 7.6736L18.2372 7.61172L18.2213 7.5439L18.1885 7.4521L18.1394 7.35784L18.0989 7.29847L18.0303 7.21967L14.4948 3.68414L14.4107 3.61152C14.1171 3.39366 13.7004 3.41787 13.4341 3.68414C13.1412 3.97703 13.1412 4.4519 13.4341 4.7448ZM7.5 10.9995C7.5 12.1041 6.60457 12.9995 5.5 12.9995C4.39543 12.9995 3.5 12.1041 3.5 10.9995C3.5 9.89494 4.39543 8.99951 5.5 8.99951C6.60457 8.99951 7.5 9.89494 7.5 10.9995ZM9 15.4995C9 16.7447 8 17.9995 5.5 17.9995C3 17.9995 2 16.7494 2 15.4995C2 14.6711 2.67157 13.9995 3.5 13.9995H7.5C8.32843 13.9995 9 14.6711 9 15.4995Z" fill="#212121"/>
</svg>

<svg xmlns="http://www.w3.org/2000/svg" width="20" height="20"><path d="M13.434 4.745 15.69 7H12l-.258-.004C8.942 6.908 7.25 5.379 7.25 3.25a.75.75 0 0 0-1.5 0l.004.213C5.867 6.423 8.35 8.5 12 8.5h3.69l-2.256 2.255-.072.084a.75.75 0 0 0 1.133.977L18.03 8.28a.747.747 0 0 0 .089-.106l.035-.056.046-.098.03-.1.016-.094.004-.059-.004-.093-.009-.062-.016-.068-.032-.092-.05-.094-.04-.06-.069-.078-3.535-3.536-.084-.072a.75.75 0 0 0-.977 1.133ZM7.5 10.999a2 2 0 1 1-4 0 2 2 0 0 1 4 0ZM9 15.5C9 16.745 8 18 5.5 18S2 16.75 2 15.5A1.5 1.5 0 0 1 3.5 14h4A1.5 1.5 0 0 1 9 15.5Z"/></svg>
